Adwaita++/apps/16/google-agenda.svg

<svg height="16" viewBox="0 0 16 16" width="16" xmlns="http://www.w3.org/2000/svg">
  <path d="m2 1-.875.875.875 6.125-.875 6.125.875.875h12l.875-.875-.875-6.125.875-6.125-.875-.875zm4.1992188 3.6855469c.6096314 0 1.087591.1568334 1.4316406.4707031.3500854.3138697.5253906.7456499.5253906 1.2949219 0 .6518832-.2989248 1.0966289-.8964844 1.3320312.3863012.132791.6630245.3191086.8320313.5605469.1690068.2354023.2539062.558305.2539062.96875 0 .6096318-.1992831 1.094874-.5976562 1.457031-.3923372.362158-.9182527.544922-1.5761719.544922-1.3158385 0-2.0206122-.691984-2.1171875-2.0742186h.796875c.03018.4647686.1537995.8098716.3710937 1.0332036.2172945.223326.5419737.333984.9765626.333984.4164809 0 .7431132-.110658.9785156-.333984.2354022-.229367.3535156-.5467634.3535156-.9511724 0-.7786383-.4447457-1.1679687-1.3320312-1.1679687l-.3339844.0078125h-.0996094v-.6777344c.5734159-.0120719.9774884-.0840058 1.2128906-.2167969.2414383-.132791.361328-.3967253.3613282-.7890625 0-.3380135-.1014181-.6037244-.3066407-.796875-.1991865-.1991865-.4741333-.2988281-.8242187-.2988281-.4587327 0-.7761292.1273492-.9511719.3808594-.1690067.2474741-.2594124.5796127-.2714844.9960937h-.796875c.0301798-1.3822339.6999632-2.0742187 2.0097657-2.0742187zm5.2207032 0h.52539v6.4199221h-.796874v-4.5722659h-1.4199224v-.5703125c.6156674-.0784674 1.0160104-.1873449 1.2031254-.3261718.187114-.1388271.349454-.4562235.488281-.9511719z" fill="#444"/>
</svg>

<svg xmlns="http://www.w3.org/2000/svg" style="isolation:isolate" width="16" height="16" version="1.1" viewBox="0 0 16 16">
 <defs>
  <style id="current-color-scheme" type="text/css">
   .ColorScheme-Text { color:#474747; } .ColorScheme-Highlight { color:#5294e2; }
  </style>
  <linearGradient id="arrongin" x1="0%" x2="0%" y1="0%" y2="100%">
   <stop style="stop-color:#dd9b44" id="stop3" offset="0%"/>
   <stop style="stop-color:#ad6c16" id="stop5" offset="100%"/>
  </linearGradient>
  <linearGradient id="aurora" x1="0%" x2="0%" y1="0%" y2="100%">
   <stop style="stop-color:#09D4DF" id="stop8" offset="0%"/>
   <stop style="stop-color:#9269F4" id="stop10" offset="100%"/>
  </linearGradient>
  <linearGradient id="fitdance" x1="0%" x2="0%" y1="0%" y2="100%">
   <stop style="stop-color:#1AD6AB" id="stop13" offset="0%"/>
   <stop style="stop-color:#329DB6" id="stop15" offset="100%"/>
  </linearGradient>
  <linearGradient id="oomox" x1="0%" x2="0%" y1="0%" y2="100%">
   <stop style="stop-color:#efefe7" id="stop18" offset="0%"/>
   <stop style="stop-color:#8f8f8b" id="stop20" offset="100%"/>
  </linearGradient>
  <linearGradient id="rainblue" x1="0%" x2="0%" y1="0%" y2="100%">
   <stop style="stop-color:#00F260" id="stop23" offset="0%"/>
   <stop style="stop-color:#0575E6" id="stop25" offset="100%"/>
  </linearGradient>
  <linearGradient id="sunrise" x1="0%" x2="0%" y1="0%" y2="100%">
   <stop style="stop-color:#FF8501" id="stop28" offset="0%"/>
   <stop style="stop-color:#FFCB01" id="stop30" offset="100%"/>
  </linearGradient>
  <linearGradient id="telinkrin" x1="0%" x2="0%" y1="0%" y2="100%">
   <stop style="stop-color:#b2ced6" id="stop33" offset="0%"/>
   <stop style="stop-color:#6da5b7" id="stop35" offset="100%"/>
  </linearGradient>
  <linearGradient id="60spsycho" x1="0%" x2="0%" y1="0%" y2="100%">
   <stop style="stop-color:#df5940" id="stop38" offset="0%"/>
   <stop style="stop-color:#d8d15f" id="stop40" offset="25%"/>
   <stop style="stop-color:#e9882a" id="stop42" offset="50%"/>
   <stop style="stop-color:#279362" id="stop44" offset="100%"/>
  </linearGradient>
  <linearGradient id="90ssummer" x1="0%" x2="0%" y1="0%" y2="100%">
   <stop style="stop-color:#f618c7" id="stop47" offset="0%"/>
   <stop style="stop-color:#94ffab" id="stop49" offset="20%"/>
   <stop style="stop-color:#fbfd54" id="stop51" offset="50%"/>
   <stop style="stop-color:#0f83ae" id="stop53" offset="100%"/>
  </linearGradient>
 </defs>
 <path fill="#444" d="M 2 1 L 1.125 1.875 L 2 8 L 1.125 14.125 L 2 15 L 14 15 L 14.875 14.125 L 14 8 L 14.875 1.875 L 14 1 L 2 1 z M 6.1992188 4.6855469 C 6.8088502 4.6855469 7.2868098 4.8423803 7.6308594 5.15625 C 7.9809448 5.4701197 8.15625 5.9018999 8.15625 6.4511719 C 8.15625 7.1030551 7.8573252 7.5478008 7.2597656 7.7832031 C 7.6460668 7.9159941 7.9227901 8.1023117 8.0917969 8.34375 C 8.2608037 8.5791523 8.3457031 8.902055 8.3457031 9.3125 C 8.3457031 9.9221318 8.14642 10.407374 7.7480469 10.769531 C 7.3557097 11.131689 6.8297942 11.314453 6.171875 11.314453 C 4.8560365 11.314453 4.1512628 10.622469 4.0546875 9.2402344 L 4.8515625 9.2402344 C 4.8817425 9.705003 5.005362 10.050106 5.2226562 10.273438 C 5.4399507 10.496764 5.7646299 10.607422 6.1992188 10.607422 C 6.6156997 10.607422 6.942332 10.496764 7.1777344 10.273438 C 7.4131366 10.044071 7.53125 9.7266746 7.53125 9.3222656 C 7.53125 8.5436273 7.0865043 8.1542969 6.1992188 8.1542969 L 5.8652344 8.1621094 L 5.765625 8.1621094 L 5.765625 7.484375 C 6.3390409 7.4723031 6.7431134 7.4003692 6.9785156 7.2675781 C 7.2199539 7.1347871 7.3398436 6.8708528 7.3398438 6.4785156 C 7.3398438 6.1405021 7.2384257 5.8747912 7.0332031 5.6816406 C 6.8340166 5.4824541 6.5590698 5.3828125 6.2089844 5.3828125 C 5.7502517 5.3828125 5.4328552 5.5101617 5.2578125 5.7636719 C 5.0888058 6.011146 4.9984001 6.3432846 4.9863281 6.7597656 L 4.1894531 6.7597656 C 4.2196329 5.3775317 4.8894163 4.6855469 6.1992188 4.6855469 z M 11.419922 4.6855469 L 11.945312 4.6855469 L 11.945312 11.105469 L 11.148438 11.105469 L 11.148438 6.5332031 L 9.7285156 6.5332031 L 9.7285156 5.9628906 C 10.344183 5.8844232 10.744526 5.7755457 10.931641 5.6367188 C 11.118755 5.4978917 11.281095 5.1804953 11.419922 4.6855469 z"/>
</svg>
